src/img/service-6.svg

<svg width="40" height="40" viewBox="0 0 40 40" fill="none" xmlns="http://www.w3.org/2000/svg">
<rect y="20" width="20" height="20" rx="8" fill="#3ED9B0"/>
<g clip-path="url(#clip0)">
<path d="M36 29.6668C34.6559 29.6708 33.4037 30.3495 32.6667 31.4735V28.3335C33.403 28.3335 34 27.7365 34 27.0002V24.3335C34.0012 24.2554 33.9853 24.1781 33.9533 24.1068C33.9533 24.1068 33.9533 24.1068 33.9533 24.0668C33.94 24.0259 33.9197 23.9875 33.8933 23.9535C32.5014 22.0985 30.3191 21.0049 28 21.0002H22.6667C21.5621 21.0002 20.6667 21.8956 20.6667 23.0002V25.4535C17.7267 23.2335 12.6667 19.2402 8.66667 16.0268V12.3335C8.66667 11.9653 8.36819 11.6668 8 11.6668C7.63181 11.6668 7.33333 11.9653 7.33333 12.3335V14.9602L3.91333 12.2202C3.96911 12.0409 3.99831 11.8545 4 11.6668V8.3335C4 7.22893 3.10457 6.3335 2 6.3335C0.895431 6.3335 1.33333e-08 7.22893 0 8.3335V11.6668C0 12.7714 0.895431 13.6668 2 13.6668C2.40782 13.6659 2.80559 13.5403 3.14 13.3068C6.80667 16.2602 16.74 24.2135 20.68 27.1268C20.745 27.8083 21.3155 28.3297 22 28.3335V29.0868L20.6067 28.7535C19.6065 27.649 18.19 27.0132 16.7 27.0002L3.89333 17.1068L1.17333 15.0002C0.882266 14.7763 0.464971 14.8299 0.24 15.1202C0.128239 15.2608 0.0779578 15.4406 0.100547 15.6188C0.123137 15.797 0.216685 15.9585 0.36 16.0668L2.36 17.5802C0.913333 18.8602 0.733333 21.0002 0.666667 22.2335C0.346667 25.6668 0.893333 28.5802 2.27333 30.8068C4.66667 34.6668 9.1 35.5935 12.5267 35.6668C14.1329 37.6908 16.9679 38.255 19.2267 37.0002H33.82C34.4651 37.4323 35.2235 37.6643 36 37.6668C38.2091 37.6668 40 35.876 40 33.6668C40 31.4577 38.2091 29.6668 36 29.6668ZM1.33333 11.6668V8.3335C1.33333 7.96531 1.63181 7.66683 2 7.66683C2.36819 7.66683 2.66667 7.96531 2.66667 8.3335V11.6668C2.66667 12.035 2.36819 12.3335 2 12.3335C1.63181 12.3335 1.33333 12.035 1.33333 11.6668ZM31.8467 32.7802L32.0933 32.8402C32.0356 33.1121 32.0043 33.3889 32 33.6668C32.0012 34.3694 32.1875 35.0592 32.54 35.6668H20.8133C22.0399 34.1715 22.3495 32.1247 21.62 30.3335C24.0733 30.9535 28.8467 32.0868 31.8467 32.7802ZM32.6667 27.0002H22V25.0002H32.6667V27.0002ZM22 23.0002C22 22.632 22.2985 22.3335 22.6667 22.3335H28C29.371 22.3345 30.7003 22.8051 31.7667 23.6668H22V23.0002ZM23.3333 28.3335H31.3333V31.2935C28.8867 30.7268 25.6533 29.9602 23.3333 29.4068V28.3335ZM3.40667 30.1068C2.18667 28.1068 1.69333 25.5135 1.96 22.3402C2.08667 20.8535 2.32 19.2268 3.41333 18.4268L14.9067 27.3002C12.767 28.0482 11.3339 30.0669 11.3333 32.3335C11.3355 33.0192 11.469 33.6981 11.7267 34.3335C8.78 34.1068 5.33333 33.1668 3.40667 30.1068ZM13.4067 34.6335L13.3533 34.5668C12.5442 33.3678 12.4454 31.8253 13.0951 30.5328C13.7448 29.2404 15.0416 28.3994 16.4867 28.3335C16.5465 28.3401 16.6068 28.3401 16.6667 28.3335C18.5639 28.3307 20.2021 29.661 20.5887 31.5185C20.9753 33.3759 20.0038 35.2494 18.263 36.0037C16.5222 36.7581 14.4909 36.1857 13.4 34.6335H13.4067ZM36 36.3335C34.5272 36.3335 33.3333 35.1396 33.3333 33.6668C33.3333 32.1941 34.5272 31.0002 36 31.0002C37.4728 31.0002 38.6667 32.1941 38.6667 33.6668C38.6667 35.1396 37.4728 36.3335 36 36.3335Z" fill="#333333"/>
<path d="M8.85986 31.1001C7.73593 30.7571 6.74005 30.0862 5.99986 29.1735C4.66653 27.4401 4.49319 24.8735 4.58653 23.0335C4.60678 22.6653 4.32472 22.3504 3.95653 22.3301C3.58834 22.3099 3.27344 22.5919 3.25319 22.9601C3.14653 25.0335 3.35319 27.9268 4.93986 29.9868C5.84708 31.0968 7.0626 31.9133 8.43319 32.3335C8.50115 32.3601 8.57353 32.3737 8.64653 32.3735C9.01472 32.4324 9.36095 32.1816 9.41986 31.8135C9.47877 31.4453 9.22805 31.099 8.85986 31.0401V31.1001Z" fill="#333333"/>
<path d="M16.6667 30.3335C15.5622 30.3335 14.6667 31.2289 14.6667 32.3335C14.6667 33.4381 15.5622 34.3335 16.6667 34.3335C17.7713 34.3335 18.6667 33.4381 18.6667 32.3335C18.6667 31.2289 17.7713 30.3335 16.6667 30.3335ZM16.6667 33.0002C16.2986 33.0002 16.0001 32.7017 16.0001 32.3335C16.0001 31.9653 16.2986 31.6668 16.6667 31.6668C17.0349 31.6668 17.3334 31.9653 17.3334 32.3335C17.3334 32.7017 17.0349 33.0002 16.6667 33.0002Z" fill="#333333"/>
<path d="M35.9999 34.3336C36.3681 34.3336 36.6666 34.0351 36.6666 33.6669C36.6666 33.2987 36.3681 33.0002 35.9999 33.0002C35.6317 33.0002 35.3333 33.2987 35.3333 33.6669C35.3333 34.0351 35.6317 34.3336 35.9999 34.3336Z" fill="#333333"/>
<path d="M14.6667 3.66683H15.3333C15.7015 3.66683 16 3.36835 16 3.00016C16 2.63197 15.7015 2.3335 15.3333 2.3335H14.6667C14.2985 2.3335 14 2.63197 14 3.00016C14 3.36835 14.2985 3.66683 14.6667 3.66683Z" fill="#333333"/>
<path d="M25.5 8.69347C25.6258 8.85262 25.8171 8.94586 26.02 8.9468C26.1735 8.94556 26.3218 8.8914 26.44 8.79347C26.7217 8.56055 26.7634 8.14422 26.5333 7.86013C26.2333 7.4868 25.9133 7.1268 25.5933 6.7868C25.4682 6.66059 25.2978 6.5896 25.12 6.5896C24.9422 6.5896 24.7718 6.66059 24.6467 6.7868C24.5205 6.91198 24.4495 7.08237 24.4495 7.26013C24.4495 7.43789 24.5205 7.60829 24.6467 7.73347C24.9333 8.0268 25.22 8.33347 25.5 8.69347Z" fill="#333333"/>
<path d="M28.5199 14.5C28.6466 14.92 28.76 15.3534 28.86 15.78C28.9325 16.0875 29.2108 16.3018 29.5266 16.2934H29.68C30.0364 16.2077 30.2568 15.8503 30.1733 15.4934C30.0666 15.04 29.9466 14.58 29.8066 14.16C29.7494 13.9186 29.5629 13.7289 29.3225 13.6676C29.0821 13.6064 28.8276 13.6837 28.6618 13.8683C28.4961 14.0529 28.4466 14.3143 28.5333 14.5467L28.5199 14.5Z" fill="#333333"/>
<path d="M27.5733 12.0401C27.6836 12.2716 27.9169 12.4194 28.1733 12.4201C28.272 12.4201 28.3696 12.3997 28.46 12.3601C28.7932 12.2036 28.9364 11.8066 28.78 11.4734C28.58 11.0401 28.36 10.6201 28.1133 10.2134C27.9292 9.8931 27.5203 9.78267 27.2 9.96676C26.8797 10.1509 26.7692 10.5598 26.9533 10.8801C27.18 11.2468 27.3867 11.6668 27.5733 12.0401Z" fill="#333333"/>
<path d="M17.9001 4.00006C18.3267 4.08673 18.7467 4.20006 19.1601 4.32673C19.2173 4.33649 19.2756 4.33873 19.3334 4.33339C19.6236 4.33225 19.8797 4.14354 19.9667 3.86673C20.0211 3.69788 20.006 3.51431 19.9246 3.35666C19.8433 3.19901 19.7025 3.08027 19.5334 3.02673C19.0801 2.88673 18.6201 2.76673 18.1467 2.66673C17.788 2.59268 17.4367 2.8219 17.3601 3.18006C17.3147 3.36108 17.3473 3.5528 17.45 3.70865C17.5526 3.86449 17.7159 3.97019 17.9001 4.00006Z" fill="#333333"/>
<path d="M21.5468 5.3468C21.9268 5.56014 22.2934 5.7868 22.6534 6.01347C22.7649 6.09128 22.8975 6.13315 23.0334 6.13347C23.3243 6.13278 23.5811 5.94361 23.6681 5.66605C23.755 5.38849 23.652 5.08661 23.4134 4.92014C23.0201 4.6468 22.6068 4.39347 22.1935 4.16014C22.0388 4.07431 21.8563 4.05348 21.6862 4.10225C21.5162 4.15101 21.3725 4.26537 21.2868 4.42014C21.1945 4.57662 21.17 4.764 21.2191 4.93893C21.2682 5.11385 21.3865 5.26117 21.5468 5.3468Z" fill="#333333"/>
<path d="M29.2933 18.3935V18.7068V19.0401C29.3036 19.2171 29.3839 19.3826 29.5165 19.5002C29.6491 19.6178 29.8231 19.6777 30 19.6668H30.04C30.2182 19.6566 30.3848 19.5753 30.5025 19.4412C30.6203 19.3072 30.6794 19.1315 30.6667 18.9535V18.6268C30.6667 18.5268 30.6667 18.4068 30.6667 18.2801C30.6541 18.0926 30.563 17.9191 30.4157 17.8023C30.2685 17.6855 30.0788 17.6363 29.8933 17.6668C29.5271 17.7019 29.2585 18.0272 29.2933 18.3935Z" fill="#333333"/>
<path d="M13.3334 6.33358H14.0001C14.3683 6.34278 14.6742 6.05177 14.6834 5.68358C14.6926 5.31539 14.4016 5.00945 14.0334 5.00024H13.3334C12.9652 5.00024 12.6667 5.29872 12.6667 5.66691C12.6667 6.0351 12.9652 6.33358 13.3334 6.33358Z" fill="#333333"/>
<path d="M19.8267 7.41344C19.6232 7.71592 19.7004 8.12575 20 8.33344C20.3489 8.58212 20.6808 8.85384 20.9934 9.14678C21.1173 9.25946 21.2792 9.32134 21.4467 9.32011C21.6315 9.31952 21.8077 9.24226 21.9334 9.10678C22.1919 8.84675 22.1919 8.4268 21.9334 8.16678C21.5805 7.83811 21.2063 7.53301 20.8134 7.25344C20.6655 7.1322 20.4727 7.08029 20.284 7.1109C20.0952 7.1415 19.9287 7.25169 19.8267 7.41344Z" fill="#333333"/>
<path d="M25.6266 16.2936C25.9787 16.1962 26.1869 15.8334 26.0933 15.4802C25.9733 15.0202 25.8266 14.5669 25.6733 14.1469C25.5481 13.799 25.1645 13.6184 24.8166 13.7436C24.4686 13.8688 24.2881 14.2523 24.4133 14.6002C24.5599 15.0069 24.6933 15.4269 24.8066 15.8469C24.887 16.1464 25.1633 16.3509 25.4733 16.3402C25.5264 16.3323 25.578 16.3166 25.6266 16.2936Z" fill="#333333"/>
<path d="M16.5199 6.72694C16.9343 6.83289 17.3417 6.96425 17.7399 7.12028C17.8181 7.15231 17.902 7.16818 17.9866 7.16694C18.3057 7.16455 18.5784 6.93629 18.6369 6.62254C18.6955 6.30878 18.5234 5.99757 18.2266 5.88028C17.7795 5.70648 17.3233 5.55737 16.8599 5.43361C16.6289 5.37287 16.383 5.44001 16.2149 5.60972C16.0467 5.77943 15.9819 6.02594 16.0449 6.25638C16.1078 6.48683 16.2889 6.66621 16.5199 6.72694Z" fill="#333333"/>
<path d="M22.8134 10.1735C22.5187 10.3899 22.4533 10.8033 22.6668 11.1002C22.9134 11.4468 23.1401 11.8202 23.3334 12.2002C23.4513 12.4098 23.6729 12.5397 23.9134 12.5402C24.0271 12.5399 24.1391 12.5125 24.2401 12.4602C24.3955 12.3733 24.5098 12.2279 24.5574 12.0564C24.6049 11.8848 24.5819 11.7013 24.4934 11.5468C24.2601 11.1268 24.0001 10.7202 23.7401 10.3402C23.5299 10.0387 23.1155 9.96415 22.8134 10.1735Z" fill="#333333"/>
<path d="M26.0001 19.6667H26.0335C26.3886 19.6489 26.6672 19.3556 26.6668 19.0001C26.6668 18.7801 26.6668 18.5467 26.6135 18.3334C26.5966 18.1562 26.5097 17.9931 26.3719 17.8804C26.2342 17.7677 26.0571 17.7148 25.8801 17.7334C25.5165 17.7719 25.2518 18.0961 25.2868 18.4601C25.2868 18.6801 25.3201 18.8934 25.3335 19.0934C25.3803 19.4247 25.6655 19.67 26.0001 19.6667Z" fill="#333333"/>
<path d="M21.9998 19.6669H22.0398C22.218 19.6567 22.3846 19.5754 22.5024 19.4413C22.6202 19.3073 22.6793 19.1316 22.6665 18.9536C22.6665 18.9536 22.6665 18.6936 22.5865 18.2469C22.5349 17.8787 22.1947 17.622 21.8265 17.6736C21.4583 17.7251 21.2016 18.0654 21.2532 18.4336C21.3065 18.8002 21.3198 19.0269 21.3198 19.0402C21.3412 19.3979 21.6416 19.6747 21.9998 19.6669Z" fill="#333333"/>
<path d="M15.5401 8.23353C15.1921 8.11203 14.8116 8.2956 14.6901 8.64353C14.5686 8.99147 14.7521 9.37203 15.1001 9.49353C15.4936 9.62738 15.875 9.79465 16.2401 9.99353C16.5642 10.1657 16.9664 10.0435 17.1401 9.7202C17.3132 9.39786 17.1942 8.99618 16.8734 8.8202C16.4452 8.58966 15.9994 8.39349 15.5401 8.23353Z" fill="#333333"/>
<path d="M19.1733 10.5869C19.009 10.4142 18.765 10.3423 18.5333 10.3983C18.3015 10.4543 18.1173 10.6297 18.0499 10.8583C17.9825 11.087 18.0423 11.3342 18.2066 11.5069C18.496 11.8097 18.7633 12.1327 19.0066 12.4736C19.1311 12.6484 19.3321 12.7526 19.5466 12.7536C19.6874 12.7515 19.8244 12.7074 19.94 12.6269C20.0835 12.5228 20.1796 12.3658 20.2072 12.1907C20.2347 12.0155 20.1913 11.8367 20.0866 11.6936C19.8075 11.3045 19.5024 10.9347 19.1733 10.5869Z" fill="#333333"/>
<path d="M20.6666 15.9134C20.7595 16.1997 21.0327 16.3881 21.3333 16.3734C21.3993 16.3862 21.4672 16.3862 21.5333 16.3734C21.8821 16.2618 22.0756 15.8898 21.9666 15.5401C21.8199 15.0801 21.6533 14.6401 21.4799 14.2068C21.3363 13.8662 20.9438 13.7065 20.6033 13.8501C20.2627 13.9937 20.103 14.3862 20.2466 14.7268C20.4066 15.0868 20.5533 15.4934 20.6666 15.9134Z" fill="#333333"/>
<path d="M12.0002 9.00008H12.6268H12.6668C13.035 9.01113 13.3425 8.72161 13.3535 8.35342C13.3645 7.98522 13.075 7.67779 12.7068 7.66675C12.4735 7.66675 12.2402 7.66675 12.0002 7.66675C11.632 7.66675 11.3335 7.96523 11.3335 8.33342C11.3335 8.70161 11.632 9.00008 12.0002 9.00008Z" fill="#333333"/>
</g>
<defs>
<clipPath id="clip0">
<rect width="40" height="40" fill="white"/>
</clipPath>
</defs>
</svg>

<svg width="40" height="40" viewBox="0 0 40 40" xmlns="http://www.w3.org/2000/svg" fill="none"><rect y="20" width="20" height="20" rx="8" fill="#3ED9B0"/><g clip-path="url(#a)" fill="#333"><path d="M36 29.667c-1.344.004-2.596.683-3.333 1.807v-3.14c.736 0 1.333-.597 1.333-1.333v-2.667c.001-.078-.015-.155-.047-.227v-.04l-.06-.113c-1.392-1.855-3.574-2.949-5.893-2.953h-5.333c-1.105 0-2 .895-2 2v2.453c-2.94-2.22-8-6.213-12-9.427v-3.693c0-.368-.298-.667-.667-.667-.368 0-.667.298-.667.667v2.627l-3.42-2.74c.056-.179.085-.366.087-.553v-3.333c0-1.105-.895-2-2-2s-2 .895-2 2v3.333c0 1.105.895 2 2 2 .408-.001.806-.127 1.14-.36 3.667 2.953 13.6 10.907 17.54 13.82.065.681.636 1.203 1.32 1.207v.753l-1.393-.333c-1-1.104-2.417-1.74-3.907-1.753l-12.807-9.893-2.72-2.107c-.291-.224-.708-.17-.933.12-.112.141-.162.32-.139.499.023.178.116.34.259.448l2 1.513c-1.447 1.28-1.627 3.42-1.693 4.653-.32 3.433.227 6.347 1.607 8.573 2.393 3.86 6.827 4.787 10.253 4.86 1.606 2.024 4.441 2.588 6.7 1.333h14.593c.645.432 1.404.664 2.18.667 2.209 0 4-1.791 4-4s-1.791-4-4-4zm-34.667-18v-3.333c0-.368.298-.667.667-.667.368 0 .667.298.667.667v3.333c0 .368-.298.667-.667.667-.368 0-.667-.299-.667-.667zm30.513 21.113l.247.06c-.058.272-.089.549-.093.827.001.703.188 1.392.54 2h-11.727c1.227-1.495 1.536-3.542.807-5.333 2.453.62 7.227 1.753 10.227 2.447zm.82-5.78h-10.667v-2h10.667v2zm-10.667-4c0-.368.299-.667.667-.667h5.333c1.371.001 2.7.472 3.767 1.333h-9.767v-.667zm1.333 5.333h8v2.96c-2.447-.567-5.68-1.333-8-1.887v-1.073zm-19.927 1.773c-1.22-2-1.713-4.593-1.447-7.767.127-1.487.36-3.113 1.453-3.913l11.493 8.873c-2.14.748-3.573 2.767-3.573 5.033.002.686.136 1.365.393 2-2.947-.227-6.393-1.167-8.32-4.227zm10 4.527l-.053-.067c-.809-1.199-.908-2.742-.258-4.034.65-1.292 1.947-2.133 3.392-2.199h.18c1.897-.003 3.535 1.328 3.922 3.185s-.585 3.731-2.326 4.485c-1.741.754-3.772.182-4.863-1.37h.007zm22.593 1.7c-1.473 0-2.667-1.194-2.667-2.667 0-1.473 1.194-2.667 2.667-2.667 1.473 0 2.667 1.194 2.667 2.667 0 1.473-1.194 2.667-2.667 2.667zM8.86 31.1c-1.124-.343-2.12-1.014-2.86-1.927-1.333-1.733-1.507-4.3-1.413-6.14.02-.368-.262-.683-.63-.703-.368-.02-.683.262-.703.63-.107 2.073.1 4.967 1.687 7.027.907 1.11 2.123 1.927 3.493 2.347l.213.04c.368.059.714-.192.773-.56.059-.368-.192-.715-.56-.773v.06zM16.667 30.334c-1.104 0-2 .895-2 2s.896 2 2 2c1.105 0 2-.895 2-2s-.895-2-2-2zm0 2.667c-.368 0-.667-.298-.667-.667 0-.368.299-.667.667-.667.368 0 .667.299.667.667 0 .368-.299.667-.667.667zM36 34.334c.368 0 .667-.298.667-.667 0-.368-.299-.667-.667-.667-.368 0-.667.298-.667.667 0 .368.298.667.667.667zM14.667 3.667h.667c.368 0 .667-.298.667-.667 0-.368-.299-.667-.667-.667h-.667c-.368 0-.667.298-.667.667 0 .368.299.667.667.667zM25.5 8.693c.126.159.317.252.52.253.154-.001.302-.055.42-.153.282-.233.323-.649.093-.933-.3-.373-.62-.733-.94-1.073-.125-.126-.296-.197-.473-.197-.178 0-.348.071-.473.197-.126.125-.197.296-.197.473 0 .178.071.348.197.473.287.293.573.6.853.96zM28.52 14.5c.127.42.24.853.34 1.28.073.307.351.522.667.513h.153c.356-.086.577-.443.493-.8-.107-.453-.227-.913-.367-1.333-.057-.241-.244-.431-.484-.492s-.495.016-.661.201c-.166.185-.215.446-.128.678l-.013-.047zM27.573 12.04c.11.231.344.379.6.38.099 0 .196-.02.287-.06.333-.156.476-.553.32-.887-.2-.433-.42-.853-.667-1.26-.184-.32-.593-.431-.913-.247-.32.184-.431.593-.247.913.227.367.433.787.62 1.16zM17.9 4c.427.087.847.2 1.26.327l.173.007c.29-.001.546-.19.633-.467.054-.169.039-.352-.042-.51-.081-.158-.222-.276-.391-.33-.453-.14-.913-.26-1.387-.36-.359-.074-.71.155-.787.513-.045.181-.013.373.09.529.103.156.266.262.45.291zM21.547 5.347c.38.213.747.44 1.107.667.111.078.244.12.38.12.291-.001.548-.19.635-.467.087-.278-.016-.579-.255-.746-.393-.273-.807-.527-1.22-.76-.155-.086-.337-.107-.507-.058-.17.049-.314.163-.399.318-.092.156-.117.344-.068.519.049.175.167.322.328.408zM29.293 18.393v.646c.01.177.091.343.223.46.133.118.307.178.483.167h.04c.178-.01.345-.091.463-.226.118-.134.177-.31.164-.488v-.6739999999999999c-.013-.188-.104-.361-.251-.478-.147-.117-.337-.166-.522-.136-.366.035-.635.36-.6.727zM13.333 6.334h.667c.368.009.674-.282.683-.65.009-.368-.282-.674-.65-.683h-.7c-.368 0-.667.298-.667.667 0 .368.298.667.667.667zM19.827 7.413c-.203.302-.126.712.173.92.349.249.681.52.993.813.124.113.286.175.453.173.185-.001.361-.078.487-.213.259-.26.259-.68 0-.94-.353-.329-.727-.634-1.12-.913-.148-.121-.341-.173-.529-.143-.189.031-.355.141-.457.303zM25.627 16.294c.352-.097.56-.46.467-.813-.12-.46-.267-.913-.42-1.333-.125-.348-.509-.529-.857-.403-.348.125-.529.509-.403.857.147.407.28.827.393 1.247.08.3.357.504.667.493l.153-.047zM16.52 6.727c.414.106.822.237 1.22.393.078.032.162.048.247.047.319-.002.592-.231.65-.544.059-.314-.114-.625-.41-.742-.447-.174-.903-.323-1.367-.447-.231-.061-.477.006-.645.176-.168.17-.233.416-.17.647.063.23.244.41.475.471zM22.813 10.174c-.295.216-.36.63-.147.927.247.347.473.72.667 1.1.118.21.339.339.58.34.114 0 .226-.028.327-.08.155-.087.27-.232.317-.404.047-.172.024-.355-.064-.51-.233-.42-.493-.827-.753-1.207-.21-.301-.625-.376-.927-.167zM26 19.667h.033c.355-.018.634-.311.633-.667 0-.22 0-.453-.053-.667-.017-.177-.104-.34-.242-.453-.138-.113-.315-.166-.492-.147-.364.038-.628.363-.593.727 0 .22.033.433.047.633.047.331.332.577.667.573zM22 19.667h.04c.178-.01.345-.091.463-.226.118-.134.177-.31.164-.488 0 0 0-.26-.08-.707-.052-.368-.392-.625-.76-.573-.368.052-.625.392-.573.76.053.367.067.593.067.607.021.358.322.635.68.627zM15.54 8.234c-.348-.121-.729.062-.85.41s.062.729.41.85c.394.134.775.301 1.14.5.324.172.726.05.9-.273.173-.322.054-.724-.267-.9-.428-.231-.874-.427-1.333-.587zM19.173 10.587c-.164-.173-.408-.245-.64-.189-.232.056-.416.231-.483.46s-.008.476.157.649c.289.303.557.626.8.967.125.175.326.279.54.28.141-.002.278-.046.393-.127.143-.104.24-.261.267-.436.027-.175-.016-.354-.121-.497-.279-.389-.584-.759-.913-1.107zM20.667 15.913c.093.286.366.475.667.46h.2c.349-.112.542-.484.433-.833-.147-.46-.313-.9-.487-1.333-.144-.341-.536-.5-.877-.357-.341.144-.5.536-.357.877.16.36.307.767.42 1.187zM12 9h.667c.368.011.676-.278.687-.647.011-.368-.279-.676-.647-.687h-.707c-.368 0-.667.298-.667.667 0 .368.298.667.667.667z"/></g><defs><clipPath id="a"><path fill="#fff" d="M0 0h40v40h-40z"/></clipPath></defs></svg>
